TV/Source/Syfy - Dark.svg

<svg id="a" width="1084.6" height="267" enable-background="new -200 303.248 1000 245.279" version="1.1" viewBox="-200 303.25 1016.8 250.31" xml:space="preserve" xmlns="http://www.w3.org/2000/svg"><g id="b" transform="matrix(1.1908 0 0 1.1908 -200 302.18)" fill="#00d7e0" fill-rule="evenodd"><g id="c"><g id="d"><g id="e"><g id="f"><path id="g" d="m184.2 0.9h-142.2l-42 42v57.8l4.8 4.8h89.7v-20.6h89.7l4.8-4.8v-74.4c-1.8-1.9-2.9-2.9-4.8-4.8z"/><path id="h" d="m4.9 126.1-4.8 4.8v75.3l4.8 4.8h142.2l42-42v-58.8l-4.8-4.8h-89.7v20.6h-89.7z"/><path id="i" d="m416.4 5.7-4.8-4.8h-83l-4.8 4.8v99.8h-21.1v-99.8l-4.8-4.8h-83l-4.8 4.8v99.8l56.8 56.9v43.9l4.8 4.8h83l4.8-4.8v-43.9l56.8-56.9v-99.8z"/><path id="j" d="m853.9 5.7-4.8-4.8h-83l-4.8 4.8v99.8h-21.1v-99.8l-4.8-4.8h-83l-4.8 4.8v99.8l56.8 56.9v43.9l4.8 4.8h83l4.8-4.8v-43.9l56.8-56.9v-99.8z"/></g><path id="k" d="m621.7 0.9h-142.2l-42 42v163.4l4.8 4.8h83l4.8-4.8v-26.1h91.6l4.8-4.8v-65l-4.8-4.8h-91.6v-20.7h91.6l4.8-4.8v-74.4c-1.8-1.9-2.9-2.9-4.8-4.8z"/></g></g></g></g></svg>

<?xml version="1.0" encoding="UTF-8" standalone="no"?>
<!-- Generator: Adobe Illustrator 16.0.0, SVG Export Plug-In . SVG Version: 6.00 Build 0)  -->

<svg
   xmlns:dc="http://purl.org/dc/elements/1.1/"
   xmlns:cc="http://creativecommons.org/ns#"
   xmlns:rdf="http://www.w3.org/1999/02/22-rdf-syntax-ns#"
   xmlns:svg="http://www.w3.org/2000/svg"
   xmlns="http://www.w3.org/2000/svg"
   xmlns:sodipodi="http://sodipodi.sourceforge.net/DTD/sodipodi-0.dtd"
   xmlns:inkscape="http://www.inkscape.org/namespaces/inkscape"
   version="1.1"
   id="svg2"
   sodipodi:docname="Syfy - Dark.svg"
   inkscape:version="0.92.1 r15371"
   x="0px"
   y="0px"
   width="1084.6399"
   height="267"
   viewBox="-200 303.248 1016.8499 250.31248"
   enable-background="new -200 303.248 1000 245.279"
   xml:space="preserve"><metadata
     id="metadata18"><rdf:RDF><cc:Work
         rdf:about=""><dc:format>image/svg+xml</dc:format><dc:type
           rdf:resource="http://purl.org/dc/dcmitype/StillImage" /><dc:title></dc:title></cc:Work></rdf:RDF></metadata><defs
     id="defs16" /><sodipodi:namedview
     showgrid="false"
     inkscape:cy="179.1997"
     inkscape:cx="292.48513"
     inkscape:zoom="0.64"
     borderopacity="1.0"
     bordercolor="#666666"
     pagecolor="#ffffff"
     id="base"
     inkscape:window-maximized="1"
     inkscape:current-layer="svg2"
     inkscape:pageshadow="2"
     inkscape:pageopacity="0.0"
     inkscape:document-units="px"
     inkscape:window-x="-8"
     inkscape:window-height="1017"
     inkscape:window-y="-8"
     inkscape:window-width="1920"
     fit-margin-top="0"
     fit-margin-left="0"
     fit-margin-right="0"
     fit-margin-bottom="0" /><g
     style="fill:#00d7e0;fill-rule:evenodd;stroke:none;stroke-width:1"
     id="g22"
     transform="matrix(1.1908301,0,0,1.1908301,-200,302.17625)"><g
       id="Page-1"><g
         id="logo"><g
           id="Group"><g
             id="Shape"><path
               inkscape:connector-curvature="0"
               id="path8"
               d="M 184.2,0.9 H 42 l -42,42 v 57.8 c 1.9,1.9 2.9,2.9 4.8,4.8 H 94.5 V 84.9 h 89.7 L 189,80.1 V 5.7 c -1.8,-1.9 -2.9,-2.9 -4.8,-4.8 z" /><path
               inkscape:connector-curvature="0"
               id="path10"
               d="M 4.9,126.1 C 3,128 2,129 0.1,130.9 v 75.3 c 1.9,1.9 2.9,2.9 4.8,4.8 h 142.2 l 42,-42 v -58.8 c -1.9,-1.9 -2.9,-2.9 -4.8,-4.8 H 94.6 V 126 H 4.9 Z" /><path
               inkscape:connector-curvature="0"
               id="path12"
               d="m 416.4,5.7 c -1.9,-1.9 -2.9,-2.9 -4.8,-4.8 h -83 v 0 c -1.9,1.9 -2.9,2.9 -4.8,4.8 v 99.8 H 302.7 V 5.7 c -1.9,-1.9 -2.9,-2.9 -4.8,-4.8 h -83 C 213,2.8 212,3.8 210.1,5.7 v 99.8 l 56.8,56.9 v 43.9 c 1.9,1.9 2.9,2.9 4.8,4.8 h 83 c 1.9,-1.9 2.9,-2.9 4.8,-4.8 v -43.9 l 56.8,-56.9 V 5.7 Z" /><path
               inkscape:connector-curvature="0"
               id="path14"
               d="M 853.9,5.7 C 852,3.8 851,2.8 849.1,0.9 h -83 v 0 c -1.9,1.9 -2.9,2.9 -4.8,4.8 v 99.8 H 740.2 V 5.7 c -1.9,-1.9 -2.9,-2.9 -4.8,-4.8 h -83 c -1.9,1.9 -2.9,2.9 -4.8,4.8 v 99.8 l 56.8,56.9 v 43.9 c 1.9,1.9 2.9,2.9 4.8,4.8 h 83 c 1.9,-1.9 2.9,-2.9 4.8,-4.8 v -43.9 l 56.8,-56.9 V 5.7 Z" /></g><path
             inkscape:connector-curvature="0"
             id="path17"
             d="M 621.7,0.9 H 479.5 l -42,42 v 163.4 c 1.9,1.9 2.9,2.9 4.8,4.8 h 83 c 1.9,-1.9 2.9,-2.9 4.8,-4.8 v -26.1 h 91.6 c 1.9,-1.9 2.9,-2.9 4.8,-4.8 v -65 c -1.9,-1.9 -2.9,-2.9 -4.8,-4.8 H 530.1 V 84.9 h 91.6 c 1.9,-1.9 2.9,-2.9 4.8,-4.8 V 5.7 c -1.8,-1.9 -2.9,-2.9 -4.8,-4.8 z" /></g></g></g></g></svg>
